X:7910
T:Song tune
C:Henry Purcell
O:England
B:Musick's Handmaid
Z:Transcribed by Frank Nordberg - http://www.musicaviva.com
F:http://abc.musicaviva.com/tunes/purcell-henry/purcell-song-tune.abc
M:3/4
L:1/4
K:C
c2e|ge2|d2e|f3|
e>fe|ABc|d>e d/c/|B3|
G2B|dBA/G/|c2d|e3|
fdB|g2f/e/|e2d/c/|c3|]
W:
W:
W:  From Musica Viva - http://www.musicaviva.com
W:  the Internet center for free sheet music downloads.

